X:1
T:Mein höchste Frucht
T:Adam Rener
T:Source : Publikation älterer praktischer und theoretischer Musik-Werke--- R.Eitner---Berlin---L.Liepmannssohn und M Bahn---1880. First publication : Ehrart Oeglin's Liederbuch---1512. Editor : André Vierendeels (17/11/17). Notes : Original clefs : C1, C3, C3, F4 Original note values have been halved Editorial accidentals above the staff
T:Mein höchste Frucht
T:©
T:©
T:©
C:Adam Rener
Z:©
%%score [ 1 2 3 4 ]
L:1/8
Q:1/4=120
M:2/2
K:F
V:1 treble nm="Soprano" snm="S"
V:2 treble-8 nm="Tenor 1" snm="T 1"
V:3 treble-8 nm="Tenor 2" snm="T 2"
V:4 bass nm="Bass" snm="B"
V:1
 F8 | c4 A4 | d6 cB | A4 c4- | c2 BA B4 | c6 BA | G2 F2 G4 | A4 z4 | G4 A4 | B4 c4- | c2 B2 A2 GF | %11
w: Mein|höch- ste|Fruncht _ _|_ _|* * * dein|Schön _ _|_ _ und|Zucht|mit Freund-|lich- keit|_ _ _ _ _|
 G4 F2 B2- | BA A4 G2 | A4 z4 | F4 A3 B | c2 d2 c2 B2 | B2 AG F2 D2- |"^-natural" D2 E2 F2 G2- | %18
w: * ist so|_ _ _ ge-|meit,|dass kein _|_ dei- ner Ge|noss _ _ _ in|_ Klein und Grosz|
 G2 A3 B c2- | c2 d2 G2 d2- | dc c4 B2 | c4 z4 | G4 G4 | B6 A2 | G4 G4 | F4 G2 A2- | A2 GF E4 | %27
w: _ _ _ _|* * der weib-|* * * blich|Bild|ist al-||so mild|als du al-||
 F4 z4 | B4 A4 | c8 | B4 d4- | d2 cB A4 | G2 c2 B2 A2- | AB c3 BAG | F2 B3 G A2 | %35
w: lein;|da- rum|ich|dich _|_ _ _ _|in Treu- * *|||
"^-natural" G2 c3 B BA | c8 |] %37
w: * * * en _|mein.|
V:2
 c6 d2 | e4 f4 | d4 f4 | e4 a4 | g8 | c4 z2 c2- | c2 d2 G2 c2- | cB c2 d4 | e4 f4 | g4 G4 | A8 | %11
w: Mein _|höch- ste|Frucht _|_ _|dein|Schön, dein|_ Schön und Zucht|_ _ _ mit|Freund- lich-|keit ist|so,|
 z2 e2 f2 d2 | e2 f2 d4 | z2 d4 cB | A2 d3 e f2 | e2 f3 e d2 | G4 A4 | B3 c d4 | e2 c2 f2 e2 | %19
w: ist so _|_ ge- meit,|dass _ _|kein _ _ _|dei- * ner Ge-|noss in|Klein und Grosz,|der weib- * lich|
 a4 z2 b2- | ba f2 g4 | g8 | e4 e4 | g4 G4- | G4 c4 | F4 z2 F2 | c2 d2 c4 | A4 c4 | B2 d4 c2 | %29
w: Bild, weib-|* * * lich|Bild|ist al-|so, al-|* so|mild als|du _ al-|* lein,|da- * rum|
 c4 F4 | B4 z2 B2- | B4 F2 f2 | e2 f2 g2 a2- | a2 gf e4 | d3 c de f2 | e2 f2 g4 | g8 |] %37
w: ich _|dich, da|_ rum ich|dich _ in Treu-|||* * en|mein.|
V:3
 z8 | z8 | F8 | c4 A4 | d6 cB | A4 c3 d | e2 f4 e2 | f8 | z4 c4 | d4 e4 | f6 ed | c4 d4 | %12
w: ||Mein|höch- ste|Frucht _ _|_ dein _|_ Schön und|Zucht|mit|Freu- lich-|keit _ _|_ ist|
 A2 c2 B4 | A8 | z4 F4 | A3 B c2 d2- | d2 c2 d4 | G4 A2 B2 | c4 c4 | f4 e2 f2- | fedc d2 d2 | c8 | %22
w: so _ ge-|meit,|dass|kei- ner dei- ner|_ Ge- noss,|in Klein und|Grosz, der|weib- * *|* * * * * lich|Bild|
 z4 c4 | d4 d4 | e8 | A4 B2 c2- | c2 BA G4 | F8 | z4 f4 | e4 f4 | g6 fe | d4 c4- | c4 d3 e | %33
w: ist|al- so|mild|als du al-||lein,|da-|rum ich|dich _ _|_ in|_ Treu- *|
 f2 e3 dcB | A2 G4 c2 | B2 c2 d4 | c8 |] %37
w: ||* * en|mein.|
V:4
 F,6 E,D, | C,4 D,4 | B,,8 | z4 F,4 | G,8 | F,8 | E,2 D,2 C,4 | F,,4 B,,4 | C,4 A,,4 | G,,4 C,4 | %10
w: Mein _ _|höch- *|ste,|mein|höch-|ste|Frucht, dein Scnön|und Zucht|mit Freund-|lich keit|
 z4 F,4 | E,4 D,2 G,2- | G,F, F,2 G,4 | D,8- | D,8 | z2 D,2 A,,2 B,,2 |"^-natural" _E,4 D,4 | %17
w: ist|so ge- meit,|_ _ _ _|||dass kein dei-|ner Gnoss|
 z2 G,2 D,2 G,2 | E,2 F,3 G, A,2- | A,2 D,2 C,2 B,,2 | B,2 A,2 G,4 | C,8 | C,4 C,4 | G,,8 | %24
w: in Klein und|Grosz, in _ Klein|_ un Grosz, der|weib- * lich|Bild|is al-|so|
 C,4 z2 C,2 | D,C,B,,A,, G,,2 F,,2 | A,,2 B,,2 C,4 | F,,2 F,3 G, A,2 | G,4 F,4 | A,8 | G,8- | %31
w: mild als|du _ _ _ _ al-||lei, al- * *|lein, da-|rum|ich|
"^-natural" G,4 z2 A,2 | E,2 A,2 G,2 F,2 | D,2 A,,3 B,, C,2 | D,2 G,4 F,2 | G,2 A,2 G,4 | C,8 |] %37
w: _ da-|rum ich dich in|Treu- * * *||* * en|mein.|

